src/actions/16/dialog-scripts.svg

<svg version="1.1" viewBox="0 0 16 16" xmlns="http://www.w3.org/2000/svg">
 <defs>
  <style id="current-color-scheme" type="text/css">.ColorScheme-Text {
        color:#363636;
      }</style>
 </defs>
 <path class="ColorScheme-Text" d="M 3.71875,4 3,4.6875 5.625,7.5 3.03125,10.3125 3.71875,11 6.6875,7.84375 7,7.5 6.6875,7.15625 Z M 7,11 v 1 h 4 v -1 z" fill="currentColor"/>
 <path d="m2 2c-1.108 0-2 0.892-2 2v8c0 1.108 0.892 2 2 2h11c1.108 0 2-0.892 2-2v-8c0-1.108-0.892-2-2-2zm0 1h11c0.554 0 1 0.446 1 1v8c0 0.554-0.446 1-1 1h-11c-0.554 0-1-0.446-1-1v-8c0-0.554 0.446-1 1-1z" class="ColorScheme-Text" fill="currentColor"/>
</svg>

<svg xmlns="http://www.w3.org/2000/svg" viewBox="0 0 16 16">
    <defs>
        <style id="current-color-scheme" type="text/css">
            .ColorScheme-Text{color:#050505;opacity:.7}
        </style>
    </defs>
    <path fill="currentColor" d="M3.719 4 3 4.688 5.625 7.5l-2.594 2.813.688.687 2.969-3.156L7 7.5l-.312-.344ZM7 11v1h4v-1z" class="ColorScheme-Text"/>
    <path fill="currentColor" d="M2 2C.892 2 0 2.892 0 4v8c0 1.108.892 2 2 2h11c1.108 0 2-.892 2-2V4c0-1.108-.892-2-2-2zm0 1h11c.554 0 1 .446 1 1v8c0 .554-.446 1-1 1H2c-.554 0-1-.446-1-1V4c0-.554.446-1 1-1z" class="ColorScheme-Text"/>
</svg>
